X: 1362
T: Jennys Bawbee.  a Reel.
%R: reel
B: Niel Gow & Sons "Complete Repository" v.1 p.36 #2
Z: 2021 John Chambers <jc:trillian.mit.edu>
M: C
L: 1/8
K: D
% - - - - - - - - - -
% Voice 1 formatted for compactness and proofreading.
V: 1 staves=2
f |\
Ta>bag fddf | gBe>d cAAf | Ta>bag fddf | B/B/B (.c>.A) d2-d :| (g | f)>.dg>.e fddf | gBe>d cAA(g |
f)>.dge .fddf | B/B/B (.c.A) d2-dg | f>dg>e fdd(f | g)>.Be>d cAAg | fdge fdfa | B/B/B (.c.A) d2d |]
% - - - - - - - - - -
% Voice 2 preserves the book's staff layout.
V: 2 clef=bass middle=d
z | d2d2 d2f2 | g2^g2 a2c'2 | d'2c'2 b2f2 | g2a2 d2d :| z | d2A2 d2f2 | g2e2 a2A2 |
d2A2 d2f2 | g2a2 d2d2 | d2A2 d2f2 | g2^g2 a2c'2 | d'2c'2 b2f2 | g2a2 d2d |]


